Yaru++/apps/scalable/accessories-character-map.svg

<svg enable-background="new" height="256" viewBox="0 0 256 256" width="256" xmlns="http://www.w3.org/2000/svg" xmlns:xlink="http://www.w3.org/1999/xlink"><linearGradient id="a" gradientTransform="matrix(0 1 -1 0 283.75451 -24.74973)" gradientUnits="userSpaceOnUse" x1="38.309559" x2="263.99759" y1="270.69043" y2="267.99701"><stop offset="0" stop-color="#f7f7f7"/><stop offset="1" stop-color="#f7f7f7"/></linearGradient><filter id="b" color-interpolation-filters="sRGB" height="1.096001" width="1.095999" x="-.047999" y="-.048001"><feGaussianBlur stdDeviation="4.4800539"/></filter><filter id="c" color-interpolation-filters="sRGB" height="1.024" width="1.024" x="-.012" y="-.012"><feGaussianBlur stdDeviation="1.1200135"/></filter><path d="m200.83049 16.247857c35.29673 0 39.09461 3.62542 38.92162 38.99353v73.006473 73.00648c.17299 35.36812-3.62489 38.99353-38.92162 38.99353h-146.15675c-35.29671 0-38.92161-3.625-38.92161-38.99353v-73.00648-73.006473c0-35.36853 3.6249-38.99353 38.92161-38.99353z" filter="url(#c)" opacity=".1"/><path d="m200.83049 16.247857c35.29673 0 39.09461 3.62542 38.92162 38.99353v73.006473 73.00648c.17299 35.36812-3.62489 38.99353-38.92162 38.99353h-146.15675c-35.29671 0-38.92161-3.625-38.92161-38.99353v-73.00648-73.006473c0-35.36853 3.6249-38.99353 38.92161-38.99353z" filter="url(#b)" opacity=".2"/><path d="m200.83049 15.247561c35.29673 0 39.09461 3.62542 38.92162 38.99353v73.006469 73.00648c.17299 35.36812-3.62489 38.99353-38.92162 38.99353h-146.15675c-35.29671 0-38.92161-3.625-38.92161-38.99353v-73.00648-73.006469c0-35.36853 3.6249-38.99353 38.92161-38.99353z" fill="url(#a)"/><text style="font-size:137.755096;font-family:sans-serif;letter-spacing:0;word-spacing:0;fill:#fff;stroke-width:3.443877" x="177.68568" y="202.85654"><tspan fill="#fff" font-family="Ubuntu" font-weight="300" stroke-width="3.443877" text-anchor="middle" x="177.68568" y="202.85654">à</tspan></text><text style="font-size:137.755096;font-family:sans-serif;letter-spacing:0;word-spacing:0;fill:#666;stroke-width:3.443877" x="177.68568" y="200.85654"><tspan fill="#666" font-family="Ubuntu" font-weight="300" stroke-width="3.443877" text-anchor="middle" x="177.68568" y="200.85654">à</tspan></text><path d="m54.679402 15.247565c-35.296728 0-39.09487 3.62603-38.92188 38.99414v2c-.17299-35.36811 3.625152-38.99414 38.92188-38.99414h146.156238c35.29673 0 38.92188 3.62561 38.92188 38.99414v-2c0-35.36853-3.62515-38.99414-38.92188-38.99414z" fill="#fff" opacity=".7"/><path d="m54.684802 239.24757c-35.296731 0-39.094875-3.62603-38.921885-38.99414v-2c-.17299 35.36811 3.625154 38.99414 38.921885 38.99414h146.156238c35.29673 0 38.92188-3.62561 38.92188-38.99414v2c0 35.36853-3.62515 38.99414-38.92188 38.99414z" opacity=".2"/><path d="m54.684802 239.24787c-35.296731 0-39.094875-3.62603-38.921885-38.99414v-2c-.17299 35.36811 3.625154 38.99414 38.921885 38.99414h146.156238c35.29673 0 38.92188-3.62561 38.92188-38.99414v2c0 35.36853-3.62515 38.99414-38.92188 38.99414z" opacity=".1"/></svg>

<?xml version="1.0" encoding="UTF-8" standalone="no"?>
<svg
   xmlns:dc="http://purl.org/dc/elements/1.1/"
   xmlns:cc="http://creativecommons.org/ns#"
   xmlns:rdf="http://www.w3.org/1999/02/22-rdf-syntax-ns#"
   xmlns:svg="http://www.w3.org/2000/svg"
   xmlns="http://www.w3.org/2000/svg"
   xmlns:xlink="http://www.w3.org/1999/xlink"
   xmlns:sodipodi="http://sodipodi.sourceforge.net/DTD/sodipodi-0.dtd"
   xmlns:inkscape="http://www.inkscape.org/namespaces/inkscape"
   enable-background="new"
   height="256"
   viewBox="0 0 256 256"
   width="256"
   version="1.1"
   id="svg33"
   sodipodi:docname="accessories-character-map.svg"
   inkscape:version="0.92.4 (5da689c313, 2019-01-14)">
  <metadata
     id="metadata39">
    <rdf:RDF>
      <cc:Work
         rdf:about="">
        <dc:format>image/svg+xml</dc:format>
        <dc:type
           rdf:resource="http://purl.org/dc/dcmitype/StillImage" />
      </cc:Work>
    </rdf:RDF>
  </metadata>
  <defs
     id="defs37">
    <linearGradient
       inkscape:collect="always"
       xlink:href="#linearGradient5889"
       id="linearGradient1694"
       x1="38.309559"
       y1="270.69043"
       x2="263.99759"
       y2="267.99701"
       gradientUnits="userSpaceOnUse"
       gradientTransform="rotate(90,154.25212,129.50239)" />
    <linearGradient
       id="linearGradient5889">
      <stop
         style="stop-color:#f7f7f7;stop-opacity:1"
         offset="0"
         id="stop5885" />
      <stop
         style="stop-color:#f7f7f7;stop-opacity:1"
         offset="1"
         id="stop5887" />
    </linearGradient>
    <filter
       inkscape:collect="always"
       style="color-interpolation-filters:sRGB"
       id="filter58449"
       x="-0.047999427"
       width="1.0959988"
       y="-0.048000574"
       height="1.0960011">
      <feGaussianBlur
         inkscape:collect="always"
         stdDeviation="4.4800539"
         id="feGaussianBlur58451" />
    </filter>
    <filter
       inkscape:collect="always"
       style="color-interpolation-filters:sRGB"
       id="filter58492"
       x="-0.011999856"
       width="1.0239997"
       y="-0.012000144"
       height="1.0240003">
      <feGaussianBlur
         inkscape:collect="always"
         stdDeviation="1.1200135"
         id="feGaussianBlur58494" />
    </filter>
  </defs>
  <sodipodi:namedview
     pagecolor="#ffffff"
     bordercolor="#666666"
     borderopacity="1"
     objecttolerance="10"
     gridtolerance="10"
     guidetolerance="10"
     inkscape:pageopacity="0"
     inkscape:pageshadow="2"
     inkscape:window-width="1920"
     inkscape:window-height="1016"
     id="namedview35"
     showgrid="false"
     inkscape:zoom="0.921875"
     inkscape:cx="128"
     inkscape:cy="128"
     inkscape:window-x="0"
     inkscape:window-y="27"
     inkscape:window-maximized="1"
     inkscape:current-layer="svg33" />
  <linearGradient
     id="a"
     gradientUnits="userSpaceOnUse"
     x1="88"
     x2="488"
     y1="88"
     y2="488">
    <stop
       offset="0"
       stop-opacity=".588235"
       id="stop2" />
    <stop
       offset="1"
       stop-opacity=".205556"
       id="stop4" />
  </linearGradient>
  <filter
     id="b"
     color-interpolation-filters="sRGB"
     height="1.087725"
     width="1.105998"
     x="-.052999"
     y="-.043863">
    <feGaussianBlur
       stdDeviation="8.4801079"
       id="feGaussianBlur7" />
  </filter>
  <filter
     id="c"
     color-interpolation-filters="sRGB"
     height="1.021931"
     width="1.0265"
     x="-.01325"
     y="-.010966">
    <feGaussianBlur
       stdDeviation="2.120027"
       id="feGaussianBlur10" />
  </filter>
  <path
     style="color:#000000;display:inline;overflow:visible;visibility:visible;opacity:0.1;fill:#000000;fill-opacity:1;fill-rule:nonzero;stroke:none;stroke-width:1;marker:none;filter:url(#filter58492);enable-background:accumulate"
     d="m 200.83049,16.247857 c 35.29673,0 39.09461,3.62542 38.92162,38.99353 v 73.006473 73.00648 c 0.17299,35.36812 -3.62489,38.99353 -38.92162,38.99353 H 54.67374 c -35.29671,0 -38.92161,-3.625 -38.92161,-38.99353 V 128.24786 55.241387 c 0,-35.36853 3.6249,-38.99353 38.92161,-38.99353 z"
     id="rect4158-7"
     inkscape:connector-curvature="0"
     sodipodi:nodetypes="scccssscsss" />
  <path
     style="color:#000000;display:inline;overflow:visible;visibility:visible;opacity:0.2;fill:#000000;fill-opacity:1;fill-rule:nonzero;stroke:none;stroke-width:1;marker:none;filter:url(#filter58449);enable-background:accumulate"
     d="m 200.83049,16.247857 c 35.29673,0 39.09461,3.62542 38.92162,38.99353 v 73.006473 73.00648 c 0.17299,35.36812 -3.62489,38.99353 -38.92162,38.99353 H 54.67374 c -35.29671,0 -38.92161,-3.625 -38.92161,-38.99353 V 128.24786 55.241387 c 0,-35.36853 3.6249,-38.99353 38.92161,-38.99353 z"
     id="rect4158-1"
     inkscape:connector-curvature="0"
     sodipodi:nodetypes="scccssscsss" />
  <path
     style="color:#000000;display:inline;overflow:visible;visibility:visible;fill:url(#linearGradient1694);fill-opacity:1;fill-rule:nonzero;stroke:none;stroke-width:1;marker:none;enable-background:accumulate"
     d="m 200.83049,15.247561 c 35.29673,0 39.09461,3.62542 38.92162,38.99353 v 73.006469 73.00648 c 0.17299,35.36812 -3.62489,38.99353 -38.92162,38.99353 H 54.67374 c -35.29671,0 -38.92161,-3.625 -38.92161,-38.99353 V 127.24756 54.241091 c 0,-35.36853 3.6249,-38.99353 38.92161,-38.99353 z"
     id="rect4158"
     inkscape:connector-curvature="0"
     sodipodi:nodetypes="scccssscsss" />
  <text
     id="text948"
     y="202.85654"
     x="177.68568"
     style="font-style:normal;font-weight:normal;font-size:137.75509644px;line-height:1000%;font-family:sans-serif;letter-spacing:0px;word-spacing:0px;display:inline;fill:#ffffff;fill-opacity:1;stroke:none;stroke-width:3.44387746px;stroke-linecap:butt;stroke-linejoin:miter;stroke-opacity:1;enable-background:new"
     xml:space="preserve"><tspan
       style="font-style:normal;font-variant:normal;font-weight:300;font-stretch:normal;font-family:Ubuntu;-inkscape-font-specification:'Ubuntu Light';text-align:center;text-anchor:middle;fill:#ffffff;fill-opacity:1;stroke-width:3.44387746px"
       y="202.85654"
       x="177.68568"
       id="tspan946"
       sodipodi:role="line">à</tspan></text>
  <text
     xml:space="preserve"
     style="font-style:normal;font-weight:normal;font-size:137.75509644px;line-height:1000%;font-family:sans-serif;letter-spacing:0px;word-spacing:0px;display:inline;fill:#666666;fill-opacity:1;stroke:none;stroke-width:3.44387746px;stroke-linecap:butt;stroke-linejoin:miter;stroke-opacity:1;enable-background:new"
     x="177.68568"
     y="200.85654"
     id="text878"><tspan
       sodipodi:role="line"
       id="tspan876"
       x="177.68568"
       y="200.85654"
       style="font-style:normal;font-variant:normal;font-weight:300;font-stretch:normal;font-family:Ubuntu;-inkscape-font-specification:'Ubuntu Light';text-align:center;text-anchor:middle;fill:#666666;stroke-width:3.44387746px">à</tspan></text>
  <path
     style="color:#000000;display:inline;overflow:visible;visibility:visible;opacity:0.7;fill:#ffffff;fill-opacity:1;fill-rule:nonzero;stroke:none;stroke-width:1;marker:none;enable-background:accumulate"
     d="m 54.679402,15.247565 c -35.296728,0 -39.09487,3.62603 -38.92188,38.99414 v 2 c -0.17299,-35.36811 3.625152,-38.99414 38.92188,-38.99414 H 200.83564 c 35.29673,0 38.92188,3.62561 38.92188,38.99414 v -2 c 0,-35.36853 -3.62515,-38.99414 -38.92188,-38.99414 z"
     id="path931"
     inkscape:connector-curvature="0"
     sodipodi:nodetypes="sccsscsss" />
  <path
     style="color:#000000;display:inline;overflow:visible;visibility:visible;opacity:0.2;fill:#000000;fill-opacity:1;fill-rule:nonzero;stroke:none;stroke-width:1;marker:none;enable-background:accumulate"
     d="m 54.684802,239.24757 c -35.296731,0 -39.094875,-3.62603 -38.921885,-38.99414 v -2 c -0.17299,35.36811 3.625154,38.99414 38.921885,38.99414 H 200.84104 c 35.29673,0 38.92188,-3.62561 38.92188,-38.99414 v 2 c 0,35.36853 -3.62515,38.99414 -38.92188,38.99414 z"
     id="path931-8"
     inkscape:connector-curvature="0"
     sodipodi:nodetypes="sccsscsss" />
  <path
     style="color:#000000;display:inline;overflow:visible;visibility:visible;opacity:0.1;fill:#000000;fill-opacity:1;fill-rule:nonzero;stroke:none;stroke-width:1;marker:none;enable-background:accumulate"
     d="m 54.684802,239.24787 c -35.296731,0 -39.094875,-3.62603 -38.921885,-38.99414 v -2 c -0.17299,35.36811 3.625154,38.99414 38.921885,38.99414 H 200.84104 c 35.29673,0 38.92188,-3.62561 38.92188,-38.99414 v 2 c 0,35.36853 -3.62515,38.99414 -38.92188,38.99414 z"
     id="path931-8-6"
     inkscape:connector-curvature="0"
     sodipodi:nodetypes="sccsscsss" />
</svg>
